!!!COM: Bach, Johann Sebastian
!!!CDT: 1685/3//-1750/7/28/
!!!OTL@@DE: Ach bleib bei uns, Herr Jesu Christ
!!!AGN: 4-Part Chorale
!!!SCT: Erk 177
!!!SCT: BWV 253
!!!YEC: Copyright 1994, David Huron
!!!YEC: Changes/Additions 2001 by Craig Stuart Sapp
!!!YEN: United States of America
!!!SMA: 371 Bach Chorales, edited by Ludwig Erk, C.F. Peters
!!!PDT: 1850, 1865
!!!ONB: Harmony and Root analysis done manually
**kern	**kern	**kern	**kern	**root	**harm	**kern
!bass	!tenor	!alto	!soprno	!	!	!
*Iorgan	*Iorgan	*Iorgan	*Iorgan	*Iorgan	*	*Iorgan
*M4/4	*M4/4	*M4/4	*M4/4	*M4/4	*M4/4	*M4/4
*met(C)	*met(C)	*met(C)	*met(C)	*met(C)	*met(C)	*met(C)
*MM60	*MM60	*MM60	*MM60	*MM60	*MM60	*MM60
*k[f#c#g#]	*k[f#c#g#]	*k[f#c#g#]	*k[f#c#g#]	*k[f#c#g#]	*k[f#c#g#]	*k[f#c#g#]
*A:	*A:	*A:	*A:	*A:	*A:	*A:
4AA	4e	4a	4cc#	4AA	I	4A 4cc# 4ee
=1	=1	=1	=1	=1	=1	=1
4A	4e	4a	8cc#	4AA	I	4A 4cc# 4ee
.	.	.	8dd	.	.	.
4G#	4e	4b	4ee	4EE	Vb	4e 4G# 4b
4A	4e	4a	4cc#	4AA	I	4A 4cc# 4ee
4F#	8e	4a	4a	4DD	IVb	4d 4F# 4a
.	8d	.	.	.	.	.
=2	=2	=2	=2	=2	=2	=2
4Gn	4d	8gn	4b	4GG	IV/IV	4G 4b 4dd
.	.	8f#	.	.	.	.
4A	4A	4e	4cc#	4AA	V/IV	4A 4cc# 4ee
4D;	4A;	4f#;	4dd;	4DD;	I/IV;	4D; 4f#; 4a;
4AA	4A	4e	4cc#	4AA	I	4A 4cc# 4ee
=3	=3	=3	=3	=3	=3	=3
4E	4G#	8e	4b	4EE	V	4E 4g# 4b
.	.	8d	.	.	.	.
8F#	4A	4c#	4a	4FF#	vi	4F# 4a 4cc#
8E	.	.	.	.	.	.
8D	2d	2f#	4.a	4DD	IV	4D 4f# 4a
8E	.	.	.	.	.	.
8F#	.	.	.	4DD	IVb	4d 4F# 4a
8G#	.	.	8b	.	.	.
=4	=4	=4	=4	=4	=4	=4
4A	8c#	4e	4cc#	4AA	I	4A 4cc# 4ee
.	8B	.	.	.	.	.
8C#	4A	4e	4cc#	4AA	Ib	4a 4C# 4ee
8D	.	.	.	.	.	.
4E	4A	4.e	8b	4EE	V	4E 4g# 4b
.	.	.	8a	.	.	.
4E	4G#	.	4b	4EE	V	4E 4g# 4b
.	.	8d	.	.	.	.
=5	=5	=5	=5	=5	=5	=5
2.AA;	2.E;	2.c#;	2.a;	2.AA;	I;	2.A; 2.cc#; 2.ee;
4AA	4e	4a	4cc#	4AA	I	4A 4cc# 4ee
=6	=6	=6	=6	=6	=6	=6
4E	8e	4g#	4b	4EE	V	4E 4g# 4b
.	8d	.	.	.	.	.
4E#	4c#	4g#	4cc#	4CC#	Vb/vi	4c# 4E# 4g#
4F#	4c#	8f#	4a	4FF#	vi	4F# 4a 4cc#
.	.	8e	.	.	.	.
8B	4B	4d#	4f#	4BB	V/V	4B 4dd# 4ff#
8A	.	.	.	.	.	.
=7	=7	=7	=7	=7	=7	=7
4G#	4B	4.e	4g#	4EE	Vb	4e 4G# 4b
4F#	4A	.	4a	4DD#	viib/V	4d# 4F# 4a#
.	.	8d#	.	.	.	.
4E;	4G#;	4e;	4b;	4EE;	V;	4E; 4g#; 4b;
4C#	4G#	4e#	4cc#	4CC#	V/vi	4C# 4e# 4g#
=8	=8	=8	=8	=8	=8	=8
8F#	4A	4c#	4a	4FF#	vi	4F# 4a 4cc#
8E	.	.	.	.	.	.
8F#	4d	4f#	4a	4DD	IVb	4d 4F# 4a
8G#	.	.	.	.	.	.
8A	8c#	4e	4.a	4AA	I	4A 4cc# 4ee
8B	8d	.	.	.	.	.
8A	8c#	8f#	.	8FF#	vib	8f# 8A 8cc#
8G#	8B	8g#	8b	8GG#	vii	8G# 8b 8dd#
=9	=9	=9	=9	=9	=9	=9
4F#	4A	4a	4cc#	4FF#	vi	4F# 4a 4cc#
8C#	4A	4e	4cc#	4AA	Ib	4a 4C# 4ee
8D	.	.	.	.	.	.
4E	4A	4.e	8b	4EE	V	4E 4g# 4b
.	.	.	8a	.	.	.
4E	4G#	.	4b	4EE	V	4E 4g# 4b
.	.	8d	.	.	.	.
=10	=10	=10	=10	=10	=10	=10
2.AA;	2.E;	2.c#;	2.a;	2.AA;	I;	2.A; 2.cc#; 2.ee;
====	====	====	====	====	====	====
*-	*-	*-	*-	*-	*-	*-
